X:1
T: Founder's Day
N:
C:Tune is "Old Way's Best" (Walsh c 1740)
S:
A:
O:
R:
M:4/4
K:Em
I:speed 200
%W: A1
% voice 1 (1 lines, 35 notes)
K:Em
M:4/4
L:1/16
e4 E4 e4 d2 c2 |B4 B4 B8 |c4 C4 c4 B2 A2 |G4 G4 G8 |F2 G2 A4 G4 E4 |F2 G2 A4 G4 E4 |B4 B,4 G4 F2 E2 |^D2 E2 F4 F8 |
%W: A2
% voice 1 (1 lines, 35 notes)
e4 E4 e4 d2 c2 |B4 B4 B8 |c4 C4 c4 B2 A2 |G4 G4 G8 |F2 G2 A4 G4 E4 |F2 G2 A4 G4 E4 |B4 B,4 G4 F2 E2 |^D2 E2 F4 F8 |
%W: B1
% voice 1 (1 lines, 36 notes)
G2 A2 B4 B4 A2 G2 |A2 B2 c4 c8 |F2 G2 A4 A4 G2 F2 |G2 A2 B4 B8 |e4 E4 e4 d2 c2 |B4 B,4 B4 A2 G2 |F4 E4 F4 E2 ^D2 |E16 |
%W: B2
% voice 1 (1 lines, 36 notes)
G2 A2 B4 B4 A2 G2 |A2 B2 c4 c8 |F2 G2 A4 A4 G2 F2 |G2 A2 B4 B8 |e4 E4 e4 d2 c2 |B4 B,4 B4 A2 G2 |F4 E4 F4 E2 ^D2 |E16 ||
